Alemania/Otras categorias/1fc Magdeburg.svg

<svg fill-rule="evenodd" height="841.89pt" viewBox="0 0 595.276 841.89" width="595.276pt" xmlns="http://www.w3.org/2000/svg"><path d="m541.429 140.002h-242.815-242.8147-2.9927v2.993 315.915c0 68.398 27.7867 129.957 72.2464 174.415 44.365 44.793 105.759 72.552 173.561 72.669 67.801-.117 129.196-27.876 173.56-72.669 44.46-44.458 72.247-106.017 72.247-174.415v-315.915-2.993z" fill="#006eb5"/><path d="m538.437 458.91c0 66.689-26.933 126.537-70.537 170.141-43.509 43.51-103.195 70.414-169.286 70.531-66.091-.117-125.777-27.021-169.287-70.531-43.6039-43.604-70.5355-103.452-70.5355-170.141v-312.495h239.8225 239.823z" fill="#fff"/><path d="m67.5549 157.104v300.097c0 128.248 103.8811 231.7 230.8461 231.7v-531.797z" fill="#006eb5"/><path d="m170.366 199.852-75.2371 8.122v17.526l32.0601-3.643v116.501h43.177z" fill="#fff"/><path d="m204.138 346.052c10.259 0 18.81-8.549 18.81-18.808 0-10.261-8.551-18.81-18.81-18.81-10.26 0-18.809 8.549-18.809 18.81 0 10.259 8.549 18.808 18.809 18.808" fill="#fff"/><path d="m502.099 285.349-40.612.427c-1.281 22.657-7.267 37.62-27.359 37.62-23.512.427-28.642-23.94-28.642-53.865 0-29.924 6.413-55.145 28.642-54.718 21.375 0 24.367 11.969 27.359 30.779l39.33-.427c-9.833-26.498-35.91-45.315-65.834-45.315-38.474 0-69.253 31.208-69.253 69.254 0 38.047 30.779 69.253 69.253 69.253 32.489 0 59.848-22.657 67.116-53.008" fill="#006eb5"/><path d="m178.489 517.523-8.549-21.375h-6.414l-20.945.856-50.4443 1.709 6.8389 18.382 11.1164-1.283 10.259 26.505-8.978 6.84 6.841 18.383 24.367-20.087 20.945-17.96zm-35.908 8.122-10.687 7.701-7.268-18.388 17.955-1.71 17.526-1.276z" fill="#fff"/><path d="m125.907 458.481-37.617-.854-.4287 17.099 54.7197.861 19.236.422.428-21.802-19.664-9.833-20.52-10.26 20.52-8.549 20.091-8.55.428-23.085-20.519-.427-53.4365-.855v17.099l37.1915.855c1.709 0 3.847-.427 6.412-.427 2.992-.428 5.984-.428 9.404-.855-2.992.855-6.412 2.138-10.687 4.274-.855.429-1.709.429-2.137.856l-42.3212 19.237 41.8922 20.947h.429c4.702 2.565 8.978 4.275 11.97 5.558-2.992-.856-5.984-1.283-8.978-1.283-2.564-.428-4.702-.428-6.413-.428z" fill="#fff"/><path d="m291.815 616.76c-1.204-6.104-3.764-11.465-8.056-16.543-1.953-2.302-4.335-4.647-7.6-6.637-3.302-1.561-7.416-3.621-12.463-4.898l-2.053-1.028-19.671-5.93-20.407 64.794-2.203 5.818 1.668.57 20.057 6.39c4.62 1.239 8.805 2.45 12.642 2.766.426.041 1.275.107 1.704.142 3.015-.177 6.031-.35 8.24-1.027 6.56-1.597 12.386-4.548 16.607-8.917 4.655-4.33 7.67-9.655 9.945-16.329 1.84-6.709 2.375-13.103 1.59-19.171zm-19.556 13.389c-2.275 6.667-5.219 11.144-9.727 13.768-1.81 1.146-4.013 1.816-5.753 2.103-3.05.598-6.46.314-9.797-.82l-5.005-1.705 13.342-41.781 4.578 1.662.433.037c5.854 1.781 9.868 5.112 12.07 9.589 1.735 4.856 2.126 10.467-.141 17.147z" fill="#fff"/><path d="m179.807 595.528 14.529 12.818c-3.847 1.716-7.695 2.565-11.542 2.138-4.275-.422-7.689-2.138-11.114-5.125-4.703-3.852-6.834-8.555-6.834-14.106 0-5.558 1.703-10.693 5.979-15.396 4.28-5.13 9.404-7.695 14.539-8.544 5.552-.428 10.682.849 14.956 4.703 2.566 2.559 4.276 5.123 5.559 7.695 1.282 2.992 1.282 5.984.854 9.405h17.107 1.276c0-3.853-.428-6.847-1.276-10.267-.857-2.131-1.716-3.841-2.572-5.984-2.131-4.703-5.557-9.404-10.26-13.253-3.847-3.414-8.55-6.406-13.251-7.688-4.703-1.717-9.405-2.571-14.535-2.138-5.131.421-9.832 1.711-14.534 3.847-2.566 1.277-4.704 2.994-7.269 5.125-1.71 1.289-2.992 2.992-4.702 4.703-3.42 3.852-5.979 8.555-7.694 13.257-1.711 4.697-2.565 9.404-2.138 14.535.427 5.129 1.709 9.832 4.274 14.535 2.138 4.274 6.249 9.734 10.26 12.819 5.558 4.273 11.115 6.845 16.672 8.127 6.419 1.277 12.825.849 20.093-1.282 2.993-.427 5.557-2.143 8.977-4.281 2.992-2.132 5.557-4.696 8.122-7.689l1.71-1.709c.428-.862.856-1.289 1.289-1.711l-29.07-25.228z" fill="#fff"/><g fill="#006eb5"><path d="m462.77 548.684-11.969-9.406-23.941-18.809-11.114 14.107 31.206 24.368c1.283.854 2.566 2.137 3.849 2.992 2.564 2.566 4.273 5.129 5.13 7.267.854 2.992.426 5.986-2.138 8.978-.854 1.282-1.711 2.137-2.992 2.992-1.711.855-3.42 1.282-5.558 1.282-2.992-.427-6.841-2.565-11.971-6.412l-28.64-22.229-2.138-1.71-11.115 14.107 13.253 10.259 22.656 17.527c6.412 5.13 13.252 7.268 20.093 6.413 1.281-.427 2.563-.427 3.42-.856 5.556-1.709 10.686-5.557 15.389-11.542 5.558-7.266 8.122-14.107 7.694-21.374-.855-6.84-4.274-12.824-11.114-17.954z"/><path d="m473.029 479.43c-2.564-3.42-6.839-5.557-11.969-6.839-3.848-.856-7.267-.856-10.259 0-2.566.427-5.131 1.709-7.696 3.419-4.703 3.847-8.122 9.405-9.833 17.099l-5.557 25.651 23.086 4.701 46.596 10.26 3.846-17.526-29.495-6.414 32.489-8.976 4.702-20.948-32.49 11.971c.427-4.703-.427-8.977-3.42-12.398zm-7.694 23.512-.856 5.13-13.678-2.565-5.558-1.283.855-4.701c.854-3.849 2.137-6.414 4.275-7.695 0-.428.428-.428.428-.428 1.709-1.283 4.273-1.71 7.267-.855 2.992.427 5.129 2.137 6.411 4.275 1.283 2.138 1.711 4.703.856 8.122z"/><path d="m446.952 456.251c1.283 1.283 2.566 2.565 3.849 3.419 2.564 1.71 5.13 3.421 8.122 4.275 4.274 2.138 8.976 2.993 14.534 2.993 5.13 0 9.833-.855 14.535-2.993 4.275-1.71 8.55-4.275 11.97-7.694 3.419-3.42 5.984-7.696 7.694-11.97 1.709-4.702 2.566-9.405 2.566-14.535 0-7.266-1.283-13.253-4.276-18.81-2.992-5.13-7.695-9.831-13.679-13.68-2.138-1.281-5.13-2.564-8.55-3.419-3.42-.854-7.268-1.282-10.688-1.282h-2.564-1.711v37.191h13.253v-18.381c4.275 1.282 7.267 3.847 9.405 6.839 2.138 3.42 2.992 7.268 2.992 11.542 0 5.558-2.137 9.833-5.984 13.679-3.849 3.421-8.979 5.13-14.963 5.13-6.412 0-11.115-1.709-15.389-5.13-3.848-3.846-5.558-8.121-5.558-13.679 0-3.42.429-6.412 1.71-8.977 1.711-2.565 3.42-4.703 6.412-6.412l-9.831-11.115-1.711-2.137c-4.275 3.847-7.267 8.122-9.405 12.825-2.137 4.701-3.42 9.831-3.42 15.816 0 5.13.856 10.26 2.994 14.535 1.709 4.702 4.273 8.55 7.693 11.97z"/><path d="m348.63 649.144-21.375 3.847-2.565-14.534 21.375-3.847-2.138-13.254-21.802 3.848-2.565-14.534 21.802-3.848-2.564-13.679-39.329 7.267 12.397 69.68 37.191-6.412 2.137-.427-2.137-11.969z"/><path d="m406.77 602.975c-.857-.427-1.284-.427-2.138-.854-2.566-.429-5.131-.429-7.696 0 2.138-2.994 2.993-5.986 2.993-8.978 0-2.993-.855-5.985-2.566-8.977-1.71-3.42-4.273-5.558-6.839-7.268-1.709-.855-3.421-1.709-5.129-2.138-2.993-.427-5.987-.427-8.979.429-2.136.854-4.701 1.709-6.839 2.992l-20.52 11.542-2.138 1.281 2.138 3.849 27.359 47.024 5.986 10.687 8.122-4.276 13.251-7.694c.429-.427.429-.427.857-.427 6.411-3.848 10.26-8.123 11.969-13.252 2.137-5.13 1.283-10.687-2.138-16.673-2.137-3.42-4.701-5.985-7.693-7.267zm-30.354 5.557h-.427l-8.549-14.535 2.565-1.709c2.564-1.284 4.702-2.138 6.411-2.138.429-.427 1.283-.427 1.711-.427 2.138.427 3.847 2.137 5.557 4.702 1.283 2.137 1.711 4.702.855 6.413-.428 2.137-2.137 3.846-4.702 5.557zm23.085 16.245c-.427 2.138-2.138 3.847-4.275 5.13l-4.702 2.565-.428.428-8.977-15.391 3.848-2.137c2.136-1.282 3.848-1.709 5.557-2.137.855 0 1.709 0 2.137.428 2.565 0 4.275 1.709 5.557 4.274 1.711 2.137 2.138 4.702 1.283 6.84z"/></g><path d="m289.636 262.796v-44.135h8.765v-18.811h-51.942v138.08h43.177v-56.322h8.765v-18.812z" fill="#fff"/><path d="m350.337 218.661v-18.811h-51.936v18.811z" fill="#006eb5"/><path d="m350.337 262.796h-51.936v18.812h51.936z" fill="#006eb5"/></svg>

<?xml version="1.0" encoding="UTF-8" standalone="yes"?>
<!-- Created with sK1/UniConvertor (http://sk1project.org/) -->
<svg xmlns="http://www.w3.org/2000/svg" xmlns:xlink="http://www.w3.org/1999/xlink"
  width="595.276pt" height="841.89pt" viewBox="0 0 595.276 841.89"
  fill-rule="evenodd">
<g>
<path style="stroke:none; fill:#006eb5" d="M 541.429 140.002L 298.614 140.002L 55.7993 140.002L 52.8066 140.002L 52.8066 142.995L 52.8066 458.91C 52.8066 527.308 80.5933 588.867 125.053 633.325C 169.418 678.118 230.812 705.877 298.614 705.994C 366.415 705.877 427.81 678.118 472.174 633.325C 516.634 588.867 544.421 527.308 544.421 458.91L 544.421 142.995L 544.421 140.002L 541.429 140.002z"/>
<path style="stroke:none; fill:#ffffff" d="M 538.437 458.91C 538.437 525.599 511.504 585.447 467.9 629.051C 424.391 672.561 364.705 699.465 298.614 699.582C 232.523 699.465 172.837 672.561 129.327 629.051C 85.7231 585.447 58.7915 525.599 58.7915 458.91L 58.7915 146.415L 298.614 146.415L 538.437 146.415L 538.437 458.91z"/>
<path style="stroke:none; fill:#006eb5" d="M 67.5549 157.104L 67.5549 457.201C 67.5549 585.449 171.436 688.901 298.401 688.901L 298.401 157.104L 67.5549 157.104z"/>
<path style="stroke:none; fill:#ffffff" d="M 170.366 199.852L 95.1289 207.974L 95.1289 225.5L 127.189 221.857L 127.189 338.358L 170.366 338.358L 170.366 199.852z"/>
<path style="stroke:none; fill:#ffffff" d="M 204.138 346.052C 214.397 346.052 222.948 337.503 222.948 327.244C 222.948 316.983 214.397 308.434 204.138 308.434C 193.878 308.434 185.329 316.983 185.329 327.244C 185.329 337.503 193.878 346.052 204.138 346.052"/>
<path style="stroke:none; fill:#006eb5" d="M 502.099 285.349L 461.487 285.776C 460.206 308.433 454.22 323.396 434.128 323.396C 410.616 323.823 405.486 299.456 405.486 269.531C 405.486 239.607 411.899 214.386 434.128 214.813C 455.503 214.813 458.495 226.782 461.487 245.592L 500.817 245.165C 490.984 218.667 464.907 199.85 434.983 199.85C 396.509 199.85 365.73 231.058 365.73 269.104C 365.73 307.151 396.509 338.357 434.983 338.357C 467.472 338.357 494.831 315.7 502.099 285.349"/>
<path style="stroke:none; fill:#ffffff" d="M 178.489 517.523L 169.94 496.148L 163.526 496.148L 142.581 497.004L 92.1367 498.713L 98.9756 517.095L 110.092 515.812L 120.351 542.317L 111.373 549.157L 118.214 567.54L 142.581 547.453L 163.526 529.493L 178.489 517.523zM 142.581 525.645L 131.894 533.346L 124.626 514.958L 142.581 513.248L 160.107 511.972L 142.581 525.645z"/>
<path style="stroke:none; fill:#ffffff" d="M 125.907 458.481L 88.29 457.627L 87.8613 474.726L 142.581 475.587L 161.817 476.009L 162.245 454.207L 142.581 444.374L 122.061 434.114L 142.581 425.565L 162.672 417.015L 163.1 393.93L 142.581 393.503L 89.1445 392.648L 89.1445 409.747L 126.336 410.602C 128.045 410.602 130.183 410.175 132.748 410.175C 135.74 409.747 138.732 409.747 142.152 409.32C 139.16 410.175 135.74 411.458 131.465 413.594C 130.61 414.023 129.756 414.023 129.328 414.45L 87.0068 433.687L 128.899 454.634L 129.328 454.634C 134.03 457.199 138.306 458.909 141.298 460.192C 138.306 459.336 135.314 458.909 132.32 458.909C 129.756 458.481 127.618 458.481 125.907 458.481z"/>
<path style="stroke:none; fill:#ffffff" d="M 291.815 616.76C 290.611 610.656 288.051 605.295 283.759 600.217C 281.806 597.915 279.424 595.57 276.159 593.58C 272.857 592.019 268.743 589.959 263.696 588.682L 261.643 587.654L 241.972 581.724L 221.565 646.518L 219.362 652.336L 221.03 652.906L 241.087 659.296C 245.707 660.535 249.892 661.746 253.729 662.062C 254.155 662.103 255.004 662.169 255.433 662.204C 258.448 662.027 261.464 661.854 263.673 661.177C 270.233 659.58 276.059 656.629 280.28 652.26C 284.935 647.93 287.95 642.605 290.225 635.931C 292.065 629.222 292.6 622.828 291.815 616.76zM 272.259 630.149C 269.984 636.816 267.04 641.293 262.532 643.917C 260.722 645.063 258.519 645.733 256.779 646.02C 253.729 646.618 250.319 646.334 246.982 645.2L 241.977 643.495L 255.319 601.714L 259.897 603.376L 260.33 603.413C 266.184 605.194 270.198 608.525 272.4 613.002C 274.135 617.858 274.526 623.469 272.259 630.149z"/>
<path style="stroke:none; fill:#ffffff" d="M 179.807 595.528L 194.336 608.346C 190.489 610.062 186.641 610.911 182.794 610.484C 178.519 610.062 175.105 608.346 171.68 605.359C 166.977 601.507 164.846 596.804 164.846 591.253C 164.846 585.695 166.549 580.56 170.825 575.857C 175.105 570.727 180.229 568.162 185.364 567.313C 190.916 566.885 196.046 568.162 200.32 572.016C 202.886 574.575 204.596 577.139 205.879 579.711C 207.161 582.703 207.161 585.695 206.733 589.116L 223.84 589.116L 225.116 589.116C 225.116 585.263 224.688 582.269 223.84 578.849C 222.983 576.718 222.124 575.008 221.268 572.865C 219.137 568.162 215.711 563.461 211.008 559.612C 207.161 556.198 202.458 553.206 197.757 551.924C 193.054 550.207 188.352 549.353 183.222 549.786C 178.091 550.207 173.39 551.497 168.688 553.633C 166.122 554.91 163.984 556.627 161.419 558.758C 159.709 560.047 158.427 561.75 156.717 563.461C 153.297 567.313 150.738 572.016 149.023 576.718C 147.312 581.415 146.458 586.122 146.885 591.253C 147.312 596.382 148.594 601.085 151.159 605.788C 153.297 610.062 157.408 615.522 161.419 618.607C 166.977 622.88 172.534 625.452 178.091 626.734C 184.51 628.011 190.916 627.583 198.184 625.452C 201.177 625.025 203.741 623.309 207.161 621.171C 210.153 619.039 212.718 616.475 215.283 613.482L 216.993 611.773C 217.421 610.911 217.849 610.484 218.282 610.062L 189.212 584.834L 179.807 595.528z"/>
<path style="stroke:none; fill:#006eb5" d="M 462.77 548.684L 450.801 539.278L 426.86 520.469L 415.746 534.576L 446.952 558.944C 448.235 559.798 449.518 561.081 450.801 561.936C 453.365 564.502 455.074 567.065 455.931 569.203C 456.785 572.195 456.357 575.189 453.793 578.181C 452.939 579.463 452.082 580.318 450.801 581.173C 449.09 582.028 447.381 582.455 445.243 582.455C 442.251 582.028 438.402 579.89 433.272 576.043L 404.632 553.814L 402.494 552.104L 391.379 566.211L 404.632 576.47L 427.288 593.997C 433.7 599.127 440.54 601.265 447.381 600.41C 448.662 599.983 449.944 599.983 450.801 599.554C 456.357 597.845 461.487 593.997 466.19 588.012C 471.748 580.746 474.312 573.905 473.884 566.638C 473.029 559.798 469.61 553.814 462.77 548.684z"/>
<path style="stroke:none; fill:#006eb5" d="M 473.029 479.43C 470.465 476.01 466.19 473.873 461.06 472.591C 457.212 471.735 453.793 471.735 450.801 472.591C 448.235 473.018 445.67 474.3 443.105 476.01C 438.402 479.857 434.983 485.415 433.272 493.109L 427.715 518.76L 450.801 523.461L 497.397 533.721L 501.243 516.195L 471.748 509.781L 504.237 500.805L 508.939 479.857L 476.449 491.828C 476.876 487.125 476.022 482.851 473.029 479.43zM 465.335 502.942L 464.479 508.072L 450.801 505.507L 445.243 504.224L 446.098 499.523C 446.952 495.674 448.235 493.109 450.373 491.828C 450.373 491.4 450.801 491.4 450.801 491.4C 452.51 490.117 455.074 489.69 458.068 490.545C 461.06 490.972 463.197 492.682 464.479 494.82C 465.762 496.958 466.19 499.523 465.335 502.942z"/>
<path style="stroke:none; fill:#006eb5" d="M 446.952 456.251C 448.235 457.534 449.518 458.816 450.801 459.67C 453.365 461.38 455.931 463.091 458.923 463.945C 463.197 466.083 467.899 466.938 473.457 466.938C 478.587 466.938 483.29 466.083 487.992 463.945C 492.267 462.235 496.542 459.67 499.962 456.251C 503.381 452.831 505.946 448.555 507.656 444.281C 509.365 439.579 510.222 434.876 510.222 429.746C 510.222 422.48 508.939 416.493 505.946 410.936C 502.954 405.806 498.251 401.105 492.267 397.256C 490.129 395.975 487.137 394.692 483.717 393.837C 480.297 392.983 476.449 392.555 473.029 392.555L 470.465 392.555L 468.754 392.555L 468.754 429.746L 482.007 429.746L 482.007 411.365C 486.282 412.647 489.274 415.212 491.412 418.204C 493.55 421.624 494.404 425.472 494.404 429.746C 494.404 435.304 492.267 439.579 488.42 443.425C 484.571 446.846 479.441 448.555 473.457 448.555C 467.045 448.555 462.342 446.846 458.068 443.425C 454.22 439.579 452.51 435.304 452.51 429.746C 452.51 426.326 452.939 423.334 454.22 420.769C 455.931 418.204 457.64 416.066 460.632 414.357L 450.801 403.242L 449.09 401.105C 444.815 404.952 441.823 409.227 439.685 413.93C 437.548 418.631 436.265 423.761 436.265 429.746C 436.265 434.876 437.121 440.006 439.259 444.281C 440.968 448.983 443.532 452.831 446.952 456.251z"/>
<path style="stroke:none; fill:#006eb5" d="M 348.63 649.144L 327.255 652.991L 324.69 638.457L 346.065 634.61L 343.927 621.356L 322.125 625.204L 319.56 610.67L 341.362 606.822L 338.798 593.143L 299.469 600.41L 311.866 670.09L 349.057 663.678L 351.194 663.251L 349.057 651.282L 348.63 649.144z"/>
<path style="stroke:none; fill:#006eb5" d="M 406.77 602.975C 405.913 602.548 405.486 602.548 404.632 602.121C 402.066 601.692 399.501 601.692 396.936 602.121C 399.074 599.127 399.929 596.135 399.929 593.143C 399.929 590.15 399.074 587.158 397.363 584.166C 395.653 580.746 393.09 578.608 390.524 576.898C 388.815 576.043 387.103 575.189 385.395 574.76C 382.402 574.333 379.408 574.333 376.416 575.189C 374.28 576.043 371.715 576.898 369.577 578.181L 349.057 589.723L 346.919 591.004L 349.057 594.853L 376.416 641.877L 382.402 652.564L 390.524 648.288L 403.775 640.594C 404.204 640.167 404.204 640.167 404.632 640.167C 411.043 636.319 414.892 632.044 416.601 626.915C 418.738 621.785 417.884 616.228 414.463 610.242C 412.326 606.822 409.762 604.257 406.77 602.975zM 376.416 608.532L 375.989 608.532L 367.44 593.997L 370.005 592.288C 372.569 591.004 374.707 590.15 376.416 590.15C 376.845 589.723 377.699 589.723 378.127 589.723C 380.265 590.15 381.974 591.86 383.684 594.425C 384.967 596.562 385.395 599.127 384.539 600.838C 384.111 602.975 382.402 604.684 379.837 606.395L 376.416 608.532zM 399.501 624.777C 399.074 626.915 397.363 628.624 395.226 629.907L 390.524 632.472L 390.096 632.9L 381.119 617.509L 384.967 615.372C 387.103 614.09 388.815 613.663 390.524 613.235C 391.379 613.235 392.233 613.235 392.661 613.663C 395.226 613.663 396.936 615.372 398.218 617.937C 399.929 620.074 400.356 622.639 399.501 624.777z"/>
<path style="stroke:none; fill:#ffffff" d="M 289.636 262.796L 289.636 218.661L 298.401 218.661L 298.401 199.85L 246.459 199.85L 246.459 337.93L 289.636 337.93L 289.636 281.608L 298.401 281.608L 298.401 262.796L 289.636 262.796z"/>
<path style="stroke:none; fill:#006eb5" d="M 350.337 218.661L 350.337 199.85L 298.401 199.85L 298.401 218.661L 350.337 218.661z"/>
<path style="stroke:none; fill:#006eb5" d="M 350.337 262.796L 298.401 262.796L 298.401 281.608L 350.337 281.608L 350.337 262.796z"/>
</g>
</svg>
